svgs/regular/list-tree.svg

<svg xmlns="http://www.w3.org/2000/svg" viewBox="0 0 512 512"><!--! Font Awesome Pro 6.6.0 by @fontawesome - https://fontawesome.com License - https://fontawesome.com/license (Commercial License) Copyright 2024 Fonticons, Inc. --><path d="M24 48C10.7 48 0 58.7 0 72l0 48c0 13.3 10.7 24 24 24l0 112 0 128c0 30.9 25.1 56 56 56l48 0c0 13.3 10.7 24 24 24l48 0c13.3 0 24-10.7 24-24l0-48c0-13.3-10.7-24-24-24l-48 0c-13.3 0-24 10.7-24 24l-48 0c-4.4 0-8-3.6-8-8l0-104 56 0c0 13.3 10.7 24 24 24l48 0c13.3 0 24-10.7 24-24l0-48c0-13.3-10.7-24-24-24l-48 0c-13.3 0-24 10.7-24 24l-56 0 0-88c13.3 0 24-10.7 24-24l0-48c0-13.3-10.7-24-24-24L24 48zM160 96c0 13.3 10.7 24 24 24l304 0c13.3 0 24-10.7 24-24s-10.7-24-24-24L184 72c-13.3 0-24 10.7-24 24zM288 256c0 13.3 10.7 24 24 24l176 0c13.3 0 24-10.7 24-24s-10.7-24-24-24l-176 0c-13.3 0-24 10.7-24 24zm0 160c0 13.3 10.7 24 24 24l176 0c13.3 0 24-10.7 24-24s-10.7-24-24-24l-176 0c-13.3 0-24 10.7-24 24z"/></svg>

<svg xmlns="http://www.w3.org/2000/svg" viewBox="0 0 512 512"><!--! Font Awesome Pro 6.4.0 by @fontawesome - https://fontawesome.com License - https://fontawesome.com/license (Commercial License) Copyright 2023 Fonticons, Inc. --><path d="M24 48C10.7 48 0 58.7 0 72v48c0 13.3 10.7 24 24 24V256 384c0 30.9 25.1 56 56 56h48c0 13.3 10.7 24 24 24h48c13.3 0 24-10.7 24-24V392c0-13.3-10.7-24-24-24H152c-13.3 0-24 10.7-24 24H80c-4.4 0-8-3.6-8-8V280h56c0 13.3 10.7 24 24 24h48c13.3 0 24-10.7 24-24V232c0-13.3-10.7-24-24-24H152c-13.3 0-24 10.7-24 24H72V144c13.3 0 24-10.7 24-24V72c0-13.3-10.7-24-24-24H24zM160 96c0 13.3 10.7 24 24 24H488c13.3 0 24-10.7 24-24s-10.7-24-24-24H184c-13.3 0-24 10.7-24 24zM288 256c0 13.3 10.7 24 24 24H488c13.3 0 24-10.7 24-24s-10.7-24-24-24H312c-13.3 0-24 10.7-24 24zm0 160c0 13.3 10.7 24 24 24H488c13.3 0 24-10.7 24-24s-10.7-24-24-24H312c-13.3 0-24 10.7-24 24z"/></svg>
